X:369
T:Flowers of Edinburgh
M:C|
L:1/8
Q: "Old Time"
K:G
G2>D2 EDB,D | B2d2 cBAG |FGFE DEFG|\
M: 3/2
A4A,2>G,2 A,2<C2 |
M: C|
BAGD GABd |\
M: 3/2
g2ed efgf gedc|\
M: C|
Bd2B A2 dc | B2F2 G4 :||
g2g2 gbag | f2f2 fagf | e3 ef gfed |\
M: 3/2
B2 efe2>f3 gfed|
M: C|
B2 GA Bdef |\
M: 3/2
g2ed efgf gedc |\
M: C|
B2 dB A2 dc| B2F2 G4 :||
